!!!COM: Bach, Johann Sebastian
!!!OTA: Das wohltemperirte Clavier
!!!OPR: Das wohltemperierte Klavier
!!!OTL: Fuga 9, Vol. 2
!!!XEN: The Well-Tempered Clavier, Volume 2, Fugue 9.
!!!ONB: E major, 4-part
!!!SCT: BWV 878b
!!!YEC: Copyright 1994, David Huron
!!!YEM: Rights to all derivative electronic formats reserved.
**kern	**kern	**kern	**kern
*staff2	*staff2	*staff1	*staff1
*clefF4	*clefF4	*clefG2	*clefG2
*k[f#c#g#d#]	*k[f#c#g#d#]	*k[f#c#g#d#]	*k[f#c#g#d#]
*M4/2	*M4/2	*M4/2	*M4/2
*E:	*E:	*E:	*E:
*MM124	*MM124	*MM124	*MM124
=1	=1	=1	=1
1E	0r	0r	0r
2F#	.	.	.
2A	.	.	.
=2	=2	=2	=2
2G#	1r	0r	0r
2F#	.	.	.
4E	1B	.	.
8D#	.	.	.
8C#	.	.	.
4D#	.	.	.
4BB	.	.	.
=3	=3	=3	=3
4E	2c#	0r	0r
4F#	.	.	.
4G#	2e	.	.
4A#	.	.	.
8B	2d#	.	.
8F#	.	.	.
2B	.	.	.
.	2c#	.	.
[4An	.	.	.
=4	=4	=4	=4
4A]	2.B	1e	0r
8G#	.	.	.
8F#	.	.	.
[2G#	.	.	.
.	4B	.	.
2G#]	4A	2f#	.
.	4B	.	.
2F#	4c#	2a	.
.	4d#	.	.
=5	=5	=5	=5
2G#	8e	2g#	1r
.	8B	.	.
.	2e	.	.
4A	.	2f#	.
8B	4d#	.	.
8A	.	.	.
4G#	2e	2e	1b
4F#	.	.	.
4E	4G#	4r	.
4D#	4F#	4B	.
=6	=6	=6	=6
1C#	2G#	4e	2cc#
.	.	4f#	.
.	2E	4g#	2ee
.	.	4a#	.
2BB	[1F#	8b	2dd#
.	.	8f#	.
.	.	2b	.
2FF#	.	.	2cc#
.	.	[4an	.
=7	=7	=7	=7
2.GG#	4F#]	4a]	[1b
.	4BB	8g#	.
.	.	8f#	.
.	[2E	2g#	.
4EE	.	.	.
2.AA	4E]	2.c#	4b]
.	4C#	.	8a
.	.	.	8g#
.	[2F#	.	[2a
4FF#	.	8d#	.
.	.	8e	.
=8	=8	=8	=8
[0BB	4F#]	2d#	2a]
.	8E	.	.
.	8F#	.	.
.	4G#	[2e	2g#
.	4A	.	.
.	8B	4e]	2f#
.	8F#	.	.
.	2B	4d#	.
.	.	2c#	2e
.	4A#	.	.
=9	=9	=9	=9
2BB]	2B	2F#	2d#
2r	2r	2B	2r
1r	1E	2c#	1r
.	.	2e	.
=10	=10	=10	=10
1r	2F#	2d#	0r
.	2A	2c#	.
1BB	2G#	4B	.
.	.	2e	.
.	2F#	.	.
.	.	[4d#	.
=11	=11	=11	=11
2C#	4E	4d#]	1e
.	2A	2c#	.
2E	.	.	.
.	4G#	8B	.
.	.	8A#	.
2D#	4F#	4B	2f#
.	8E	2f#	.
.	8D#	.	.
2C#	4E	.	2an
.	4F#	8e	.
.	.	8d#	.
=12	=12	=12	=12
[1BB	4G#	2.e	2g#
.	4A	.	.
.	8B	.	2f#
.	8F#	.	.
.	8B	4d#	.
.	8A	.	.
2BB]	2G#	1c#	4e#
.	.	.	4f#
2AA	[2F#	.	4g#
.	.	.	4a
=13	=13	=13	=13
1GG#	2F#]	4B	4b
.	.	4c#	4f#
.	2E	4d#	[2b
.	.	4e	.
4FF#	4D#	4f#	2b]
4GG#	4E#	4c#	.
4AA	2F#	[2f#	2a
4BB	.	.	.
=14	=14	=14	=14
4C#	4C#	2f#]	[1g#
4GG#	4D#	.	.
[2C#	4E	2e	.
.	4F#	.	.
2C#]	4G#	1d#	2.g#]
.	4D#	.	.
2BB	[2G#	.	.
.	.	.	8a
.	.	.	8b
=15	=15	=15	=15
1AA	2G#]	4c#	4cc#
.	.	4d#	4b#
.	[2F#	4e	4cc#
.	.	4f#	4dd#
1GG#	4F#]	2g#	4b#
.	4E	.	2cc#
.	2D#	2f#	.
.	.	.	4b#
=16	=16	=16	=16
2C#	4C#	1e	1cc#
.	4G#	.	.
4r	[2c#	.	.
4C#	.	.	.
2.Dn	4c#]	2f#	1r
.	8B	.	.
.	8A#	.	.
.	[2B	2a	.
4D#	.	.	.
=17	=17	=17	=17
2.E	4B]	2g#	1b
.	8An	.	.
.	8G#	.	.
.	4A	2f#	.
4D#	8B	.	.
.	8A	.	.
2E	2.G#	4e	2cc#
.	.	4c#	.
2C#	.	[2g#	2ee
.	4G#	.	.
=18	=18	=18	=18
2F#	2.A	4g#]	2dd#
.	.	8f#	.
.	.	8e#	.
2E	.	[2f#	2cc#
.	4A#	.	.
2D#	2.B	4f#]	2b
.	.	8en	.
.	.	8d#	.
2C#	.	4e	2cc#
.	4A#	8f#	.
.	.	8e	.
=19	=19	=19	=19
1BB	4.B	2.d#	4f#
.	.	.	4d#
.	8An	.	.
.	8G#	.	[2g#
.	8F#	.	.
.	8E	4G#	.
.	8D#	.	.
2C#	2E	2.A	4g#]
.	.	.	8f#
.	.	.	8e#
2E	2r	.	[2f#
.	.	4A#	.
=20	=20	=20	=20
2D#	1F#	2.B	4f#]
.	.	.	8en
.	.	.	8d#
2C#	.	.	4e
.	.	4A#	8f#
.	.	.	8e
4BB	2G#	2B	4d#
2GG#	.	.	4b
.	2B	2dn	[2e#
8AA	.	.	.
8BB	.	.	.
=21	=21	=21	=21
2C#	2A	[1c#	4e#]
.	.	.	2f#
2BB	[2G#	.	.
.	.	.	4e#
2AA	4G#]	2c#]	2cc#
.	2F#	.	.
2GG#	.	2g#	[2b
.	4E#	.	.
=22	=22	=22	=22
2FF#	2F#	2c#	4b]
.	.	.	2a
2BB	2Dn	2B	.
.	.	.	[4g#
2C#	[1C#	2A	4g#]
.	.	.	2f#
2CC#	.	2G#	.
.	.	.	4e#
=23	=23	=23	=23
4FF#	2.C#]	4A	1f#
4GG#	.	4B	.
4AA	.	[2c#	.
4FF#	4D#	.	.
2C#	4E#	2c#]	4g#
.	4C#	.	4a
4BB	2G#	4d#	[2b
4C#	.	4e#	.
=24	=24	=24	=24
4Dn	2F#	2.f#	4b]
4C#	.	.	4a
4BB#	4G#	.	2g#
4C#	[4C#	4en	.
4FF#	4C#]	2d#	2f#
4GG#	4BB#	.	.
2AA	4C#	[2c#	4e
.	4D#	.	4f#
=25	=25	=25	=25
1GG#	4E	4c#]	2.g#
.	8F#	8d#	.
.	8E	8c#	.
.	[2D#	2B#	.
.	.	.	4a
4AA#	2D#]	4c#	4g#
4BB#	.	4d#	4f#
[2C#	4E	2G#	2e
.	4F#	.	.
=26	=26	=26	=26
4C#]	2.G#	4d#	1r
4BBn	.	8e	.
.	.	8d#	.
2AAn	.	4c#	.
.	4F#	4a	.
[1GG#	2E	4B#	2r
.	.	2c#	.
.	2D#	.	2g#
.	.	4B#	.
=27	=27	=27	=27
2GG#]	2E	2c#	4a
.	.	.	4cc#
2FF#	2r	2d#	4b
.	.	.	4a
4EE	1r	4e	2g#
4CC#	.	4g#	.
2FF#	.	4f#	2a#
.	.	4e	.
=28	=28	=28	=28
2BB	2r	4d#	[1b
.	.	4an	.
2r	2B	4g#	.
.	.	4f#	.
2r	4c#	4e	2.b]
.	4e	4g#	.
2F#	4d#	4f#	.
.	4c#	4e	4a#
=29	=29	=29	=29
4G#	4B	4d#	4b
4B	4dn	4e	4g#
4A	4c#	4f#	4an
4G#	4B	4g#	4b
2F#	2A	2.a	4cc#
.	.	.	4dd#
2E	2B	.	[2ee
.	.	4g#	.
=30	=30	=30	=30
2B	2.B	4f#	2.ee]
.	.	4e	.
2BB	.	2f#	.
.	4A	.	4dd#
4C#	2.G#	1e	4ee
4E	.	.	2b
4D#	.	.	.
4C#	4c#	.	4a#
=31	=31	=31	=31
4D#	4F#	2f#	2b
4BB	4D#	.	.
4C#	4E	2an	4r
4D#	4F#	.	4ff#
2.E	4G#	2g#	4b
.	4B	.	4g#
.	4c#	2f#	4a
4D#	4d#	.	4b
=32	=32	=32	=32
4E	4G#	4e	2cc#
4C#	4E	2a	.
4D#	4F#	.	2b
4E#	4G#	4g#	.
2.F#	4A	4f#	2a
.	4B	4ddn	.
.	[2c#	4cc#	2g#
4E#	.	4b	.
=33	=33	=33	=33
4F#	4c#]	4a	4f#
4D#	4c#	4f##	4ee
4E#	4B	4g#	4dd#
4F##	4A#	4a#	4cc#
2.G#	4B	4g#	2b
.	4d#	4f#	.
.	2c#	2e	[2a#
4F##	.	.	.
=34	=34	=34	=34
2G#	2.B	2d#	4a#]
.	.	.	8g#
.	.	.	8f##
2E#	.	2c##	[2g#
.	8A#	.	.
.	8G#	.	.
2D#	4A#	1d#	2.g#]
.	4B	.	.
2DD#	2c#	.	.
.	.	.	4f##
=35	=35	=35	=35
2GG#	2B	2d#	2g#
2r	2r	2B	4r
.	.	.	4b
1r	1E	2c#	4g#
.	.	.	4e
.	.	2e	4f#
.	.	.	4g#
=36	=36	=36	=36
1r	2F#	2d#	4a
.	.	.	4b
.	2A	2c#	4cc#
.	.	.	4dd#
1BB	2G#	2B	8ee
.	.	.	8b
.	.	.	2ee
.	2F#	2b	.
.	.	.	[4dd#
=37	=37	=37	=37
2C#	2E	4g#	4dd#]
.	.	4e	8cc#
.	.	.	8b
2E	2r	4g#	2cc#
.	.	4a#	.
2D#	2r	8b	4b
.	.	8f#	.
.	.	2b	4r
2C#	4r	.	2ee
.	4E	[4an	.
=38	=38	=38	=38
4BB	4D#	4a]	2ff#
4r	4B	4d#	.
2r	4c#	4e	2aa
.	4d#	4f#	.
1r	8e	4g#	2gg#
.	8B	.	.
.	2e	4cc#	.
.	.	4a	2ff#
.	[4d#	4b	.
=39	=39	=39	=39
0r	8d#]	4g#	2ee
.	8G#	.	.
.	2c#	4a	.
.	.	4f#	2dd#
.	[4B	4g#	.
.	8B]	4e	2cc#
.	8E	.	.
.	2A	4f#	.
.	.	4d#	[2b
.	4G#	[4e	.
=40	=40	=40	=40
1BB	1F#	4e]	4b]
.	.	8d#	4cc#
.	.	8c#	.
.	.	2d#	4b
.	.	.	4a
2C#	4E	4r	2g#
.	4G#	8e	.
.	.	8f#	.
2E	4c#	4g#	2r
.	[4F#	4a#	.
=41	=41	=41	=41
2D#	4F#]	8b	2r
.	.	8f#	.
.	4F#	2b	.
2C#	4G#	.	2ee
.	4A	[4an	.
2BB	4B	8a]	2dd#
.	.	8d#	.
.	4D#	2g#	.
2AA	4E	.	2cc#
.	4F#	[4f#	.
=42	=42	=42	=42
2GG#	2G#	8f#]	2b
.	.	8B	.
.	.	2e	.
2FF#	2A	.	2a
.	.	4d#	.
4EE	4B	4e	8g#
.	.	.	8f#
4FF#	4r	4r	8g#
.	.	.	8a
4GG#	4r	4r	4b
4AA	4c#	4e	4a
=43	=43	=43	=43
1BB	2.B	2e	2g#
.	.	2d#	2f#
.	4A	.	.
1EE;	1G#;	1B;	1e;
==	==	==	==
*-	*-	*-	*-
!!!CDT: 1685/3/-1750/7/28
!!!OCY: Deutschland
!!!PPP: Leipzig
!!!ODT: 1738//-1742//
!!!PDT: 1739//-1742//
!!!AFR: fuga; fugue
!!!AST: polyphony
!!!AMT: simple quadruple
!!!SCA: Bach-Werke-Verzeichnis
!!!YOR: Bach Gesellschaft
!!!SMS: British Library, various
!!!AIN: cemba; clavi
!!!EEV: 1.0
!!!RDT: 1986 December 3
!!!YER: 1994 August 10
!!!EFL: 33/48
!!!VTS: 3968431400
